X:1
T:The Morning Mist
L:1/8
Q:1/4=120
M:4/4
K:G
dc BG DG GB | dG GF DG Bd | Bc cB c=F F/F/F | c=F A^F GA Bc | 
dc BG DG GB | dG GF DG Bd | Bc cB ce dc |1 cA FA GA Bc :|2 cA FA GA B/c/d ||
|: gd dc Bc dc | BG GE DG Bd | ae ed Bc cB | ca aa ab af 
| gd dc Bc dc | BG GE DG Bd | Bc cB ce dc |1 cA FA G4 :|2 cA FA G2 Bc ||


